X:99010
T:Mrs Cholmondeley's Reel
P:The Lass o' Patie's Mill
C:Traditional
R:Reel (8x32)
B:RSCDS Gr-10
Z:Anselm Lingnau <anselm@strathspey.org>
M:C
L:1/8
K:C
|:G>F|"C"E2DC E2G2|"Am"c3"G7"xd "C"e2zG|"F"A>BcB "Dm"AGFE|"G"E2D4 G>F|
      "C"E2DC E2G2|"Am"c3d/e/ "C"G2zc|"F"ABcA "G"Bcde|"C"c6:|
|:e2|"Dm"fedc "G7"cBAG|"C"c3d e2zG|"F"A>BcG "Dm"AGFE|"G"E2D4 ef|
     "C"gefd ec"F"Af|"G"e2d4 "C7"E2|"F"F2 G>A "G7"G2 [B2F2D2]|"C"[c6E6]:|

